Yaru++/actions/16/format-add-node.svg

<svg viewBox="0 0 24 24" xmlns="http://www.w3.org/2000/svg"><path d="m5.5 4c-.831 0-1.5.669-1.5 1.5 0 .6542.418077 1.2022031 1 1.4082031v10.0917969h-1v3h3v-1h7v-1h-7v-1h-1v-10.0917969c.424456-.1503.7567461-.4855031.9082031-.9082031h10.0917969v1h1v7h1v-7h1v-3h-3v1h-10.0917969c-.206006-.5819-.7539631-1-1.4082031-1zm0 1c.277 0 .5.223.5.5s-.223.5-.5.5-.5-.223-.5-.5.223-.5.5-.5zm12.5 0h1v1h-1zm-1 10v2h-2v1h2v2h1v-2h2v-1h-2v-2zm-12 3h1v1h-1z" fill="#808080"/></svg>

<svg xmlns="http://www.w3.org/2000/svg" viewBox="0 0 24 24">
 <defs>
  <style id="current-color-scheme" type="text/css">
   .ColorScheme-Text { color:#808080; }
  </style>
 </defs>
 <path style="fill:currentColor" class="ColorScheme-Text" d="M 5.5 4 C 4.669 4 4 4.669 4 5.5 C 4 6.1542 4.418077 6.7022031 5 6.9082031 L 5 17 L 4 17 L 4 20 L 7 20 L 7 19 L 14 19 L 14 18 L 7 18 L 7 17 L 6 17 L 6 6.9082031 C 6.424456 6.7579031 6.7567461 6.4227 6.9082031 6 L 17 6 L 17 7 L 18 7 L 18 14 L 19 14 L 19 7 L 20 7 L 20 4 L 17 4 L 17 5 L 6.9082031 5 C 6.7021971 4.4181 6.15424 4 5.5 4 z M 5.5 5 C 5.777 5 6 5.223 6 5.5 C 6 5.777 5.777 6 5.5 6 C 5.223 6 5 5.777 5 5.5 C 5 5.223 5.223 5 5.5 5 z M 18 5 L 19 5 L 19 6 L 18 6 L 18 5 z M 17 15 L 17 17 L 15 17 L 15 18 L 17 18 L 17 20 L 18 20 L 18 18 L 20 18 L 20 17 L 18 17 L 18 15 L 17 15 z M 5 18 L 6 18 L 6 19 L 5 19 L 5 18 z"/>
</svg>
